src/assets/metronic/worbby/global/img/icon-done.svg

<?xml version="1.0" encoding="UTF-8"?>
<svg width="80px" height="80px" viewBox="0 0 80 80" version="1.1" xmlns="http://www.w3.org/2000/svg" xmlns:xlink="http://www.w3.org/1999/xlink">
    <!-- Generator: Sketch 41.2 (35397) - http://www.bohemiancoding.com/sketch -->
    <title>icon-4</title>
    <desc>Created with Sketch.</desc>
    <defs></defs>
    <g id="Desktop" stroke="none" stroke-width="1" fill="none" fill-rule="evenodd">
        <g id="Desktop-Home-Worbbior" transform="translate(-1060.000000, -2911.000000)">
            <g id="icon-4" transform="translate(1060.000000, 2911.000000)">
                <circle id="Oval-Copy" fill="#FFCB33" cx="53.5" cy="53.5" r="26.5"></circle>
                <path d="M78.179787,25.9954481 C77.9763264,25.3113745 77.4285478,24.7827721 76.7399118,24.5962065 L70.2448228,22.9637579 C68.7110427,18.284072 64.2662107,15.0036277 59.2109968,15.0036277 C55.7365155,15.0036277 52.4811456,16.5272463 50.3213328,19.123617 L46.5494859,23.2902476 L42.1985588,1.60200212 C42.0733523,0.980116949 41.666431,0.45151455 41.0873508,0.18721335 C40.5082706,-0.0770878499 39.8352855,-0.0615407205 39.271856,0.233854738 C38.7240774,0.529250196 26.9077106,6.99685602 24.2940242,18.2218834 L5.45044059,3.26554497 C4.98091608,2.89241386 4.3548834,2.7524897 3.76015236,2.87686674 C3.16542131,3.00124377 2.66459517,3.38992201 2.39853128,3.93407153 C2.30462638,4.12063709 -7.05456216,23.4301718 11.8516247,42.3354811 C14.8722324,45.3516242 18.0023958,47.481581 21.0543051,48.9896525 L3.35323112,57.1363483 C2.6958968,57.4317438 2.25767393,58.053629 2.19507066,58.7687969 C2.13246739,59.4839649 2.44548373,60.1680386 3.04021478,60.5722639 L23.1045621,74.6268689 C23.4488801,74.8600758 23.8558013,75 24.2627226,75 C24.4192307,75 24.5600881,74.9844529 24.7165963,74.9533586 C25.2800257,74.8289816 25.7495502,74.4713976 26.0312649,73.9738895 L33.9975307,59.6549833 C38.160648,59.8104546 50.9943179,59.6860775 57.7398201,52.9852648 C63.1863044,47.5748637 63.1080503,41.2782763 61.9185882,37.3603997 C71.4029833,34.2820681 77.4285478,28.2186876 77.7102625,27.9388393 C78.1954378,27.4257841 78.3832476,26.6795218 78.179787,25.9954481 L78.179787,25.9954481 Z M38.8336332,5.25557753 L43.2002111,27.0060116 L39.9135395,30.6284927 L27.8780613,21.0670081 C28.6606021,13.3867262 35.2182944,7.77421249 38.8336332,5.25557753 L38.8336332,5.25557753 Z M58.7101707,34.1421439 C58.1154397,34.2976152 57.6146135,34.7173877 57.3798513,35.2770844 C57.1294382,35.8367811 57.1607398,36.4897605 57.4581054,37.0183629 C57.489407,37.0805514 61.1516982,43.9523826 54.9070222,50.1556872 C48.2710758,56.7476701 33.1680374,55.6127296 33.0271801,55.5971825 C32.2446392,55.534994 31.4934,55.9392194 31.1021296,56.6232931 L23.6053883,70.0871071 L8.22063519,59.3129464 L26.2190747,51.0107793 C29.8031118,52.0835313 33.0741325,52.3944739 35.6252157,52.3944739 C38.7553791,52.3944739 40.7899853,51.9436071 41.0247475,51.8814186 C42.1046539,51.6326645 42.7619882,50.5599126 42.5115752,49.4871607 C42.2611621,48.4144087 41.1656049,47.7458822 40.1013493,47.9946362 C39.7413806,48.0723719 33.9505783,49.3005951 26.7981549,46.99962 C26.7825041,46.99962 26.7825041,46.99962 26.7668533,46.9840728 C22.9324031,45.7403025 18.7223334,43.5015158 14.7157242,39.5059036 C1.44383145,26.2442022 3.47843765,13.2934434 5.0904718,8.08515508 L48.3649807,42.4754053 C49.2257756,43.159479 50.4934918,43.0195548 51.1821277,42.1644627 C51.8707637,41.3093706 51.7299063,40.0500531 50.8691114,39.3659794 L43.0437029,33.1471277 L53.3575913,21.766629 C54.7974665,20.0253505 56.9416284,19.0303342 59.195346,19.0303342 C62.7793831,19.0303342 65.9095465,21.5645163 66.6294841,25.0470733 C66.7859923,25.7933355 67.3650725,26.3996735 68.1006609,26.5862391 L71.9977143,27.5657082 C69.2431705,29.6490236 64.5792271,32.6185253 58.7101707,34.1421439 L58.7101707,34.1421439 Z" id="Shape" fill="#1E2225"></path>
            </g>
        </g>
    </g>
</svg>

<svg xmlns="http://www.w3.org/2000/svg" width="80" height="80"><g fill="none" fill-rule="evenodd"><circle cx="53.5" cy="53.5" r="26.5" fill="#FFCB33"/><path fill="#1E2225" d="M78.1798 25.9954c-.2035-.684-.7513-1.2126-1.44-1.3992l-6.495-1.6324c-1.5338-4.6797-5.9786-7.9602-11.0338-7.9602-3.4745 0-6.73 1.5236-8.8897 4.12l-3.7718 4.1666-4.351-21.6882c-.125-.622-.532-1.1505-1.111-1.4148-.5792-.2643-1.2522-.2487-1.8156.0467-.548.2953-12.3643 6.763-14.978 17.988L5.4504 3.2654c-.4695-.373-1.0955-.513-1.6902-.3886-.5948.1242-1.0956.513-1.3617 1.057-.094.1866-9.453 19.4962 9.453 38.4015 3.0207 3.016 6.151 5.146 9.2028 6.6542l-17.701 8.1466c-.6574.2954-1.0956.9173-1.1582 1.6325-.0625.7152.2505 1.3992.8452 1.8035L23.1046 74.627c.3443.233.7512.373 1.158.373.1566 0 .2975-.0155.454-.0466.5634-.1244 1.033-.482 1.3147-.9795l7.9662-14.319c4.163.1555 16.9968.031 23.7423-6.6697 5.4465-5.4104 5.3683-11.707 4.1788-15.625 9.4844-3.0782 15.51-9.1416 15.7917-9.4215.485-.513.673-1.2593.4695-1.9434zM38.8336 5.2556l4.3666 21.7504-3.2867 3.6225L27.878 21.067c.7826-7.6803 7.3403-13.2928 10.9556-15.8114zM58.7102 34.142c-.5948.1556-1.0956.5754-1.3303 1.135-.2506.5598-.2193 1.2128.078 1.7414.0314.0622 3.6937 6.934-2.551 13.1373-6.636 6.592-21.739 5.457-21.8798 5.4415-.7826-.0622-1.5338.342-1.925 1.026l-7.4968 13.464L8.2206 59.3128l17.9985-8.3022c3.584 1.0727 6.855 1.3837 9.4062 1.3837 3.1302 0 5.1648-.451 5.3995-.513 1.08-.2488 1.7373-1.3216 1.487-2.3943-.2505-1.0728-1.346-1.7413-2.4104-1.4926-.36.0778-6.1507 1.306-13.303-.995-.0158 0-.0158 0-.0314-.0155-3.8346-1.2437-8.0447-3.4825-12.0513-7.478C1.4437 26.244 3.4784 13.2933 5.0905 8.085L48.365 42.4754c.8608.684 2.1285.5442 2.817-.311.6888-.855.548-2.1143-.313-2.7984l-7.8253-6.219 10.314-11.3804c1.4398-1.7412 3.584-2.7363 5.8376-2.7363 3.584 0 6.7142 2.5342 7.4342 6.0168.1565.7463.7356 1.3527 1.4712 1.5392l3.897.9795c-2.7545 2.0833-7.4185 5.0528-13.2875 6.5764z"/></g></svg>
